;FLAVOR:Marlin
;TIME:4170
;Filament used: 2.85557m
;Layer height: 0.2
;MINX:78.459
;MINY:102.023
;MINZ:0.36
;MAXX:139.572
;MAXY:133.395
;MAXZ:59.71
;TARGET_MACHINE.NAME:Unknown
;Generated with Cura_SteamEngine 5.6.0
M140 S85
M105
M190 S85
M104 S220
M105
M109 S220
M82 ;absolute extrusion mode
G28 ;Home
G1 Z15.0 F6000 ;Move the platform down 15mm
;Prime the extruder
G92 E0
G1 F200 E3
G92 E0
G92 E0
G92 E0
G1 F1500 E-7
;LAYER_COUNT:292
;LAYER:-6
M107
G0 F7200 X83.352 Y107.679 Z0.36
;TYPE:SUPPORT-INTERFACE
G1 F1500 E0
G1 F1350 X83.771 Y107.42 E0.05898
G1 X84.293 Y107.181 E0.12772
G1 X87.767 Y106.207 E0.55973
G1 X88.241 Y106.106 E0.61776
G1 X88.865 Y106.04 E0.69289
G1 X89.613 Y106.124 E0.78301
G1 X90.563 Y106.388 E0.90107
G1 X91.241 Y106.532 E0.98407
G1 X91.919 Y106.588 E1.06552
G1 X92.602 Y106.557 E1.14739
G1 X93.277 Y106.44 E1.22942
G1 X93.933 Y106.238 E1.3116
G1 X94.547 Y105.961 E1.39226
G1 X95.963 Y105.035 E1.59484
G1 X96.489 Y104.796 E1.66402
G1 X98.069 Y104.357 E1.86037
G1 X98.879 Y104.271 E1.9579
G1 X99.634 Y104.356 E2.04887
G1 X101.273 Y104.82 E2.25283
G1 X101.838 Y105.088 E2.32771
G1 X102.458 Y105.476 E2.41528
G1 X103.148 Y105.8 E2.50656
G1 X103.954 Y106.045 E2.60742
G1 X105.283 Y106.43 E2.7731
G1 X105.952 Y106.535 E2.85418
G1 X106.663 Y106.552 E2.93934
G1 X107.612 Y106.429 E3.05392
G1 X108.308 Y106.298 E3.13872
G1 X108.781 Y106.268 E3.19547
G1 X112.278 Y106.268 E3.61418
G1 X112.883 Y106.303 E3.68675
G1 X113.795 Y106.494 E3.79832
G1 X114.439 Y106.554 E3.87576
G1 X115.161 Y106.531 E3.96225
G1 X115.831 Y106.42 E4.04357
G1 X117.049 Y106.068 E4.19538
G1 X117.763 Y105.917 E4.28276
G1 X118.421 Y105.74 E4.36435
G1 X119.057 Y105.48 E4.44662
G1 X119.754 Y105.157 E4.5386
G1 X121.163 Y104.773 E4.71346
G1 X122.12 Y104.583 E4.83029
G1 X122.768 Y104.369 E4.912
G1 X123.397 Y104.066 E4.99559
G1 X124.078 Y103.609 E5.09379
G1 X124.387 Y103.365 E5.14094
G1 X124.83 Y103.092 E5.20324
G1 X125.364 Y102.849 E5.27349
G1 X127.802 Y102.169 E5.57655
G1 X128.446 Y102.033 E5.65536
G1 X129.077 Y102.023 E5.73092
G1 X129.643 Y102.086 E5.79911
G1 X132.421 Y102.866 E6.1446
G1 X133.141 Y103.206 E6.23994
G1 X133.75 Y103.678 E6.3322
G1 X135.7 Y105.738 E6.67184
G1 X136.127 Y106.369 E6.76307
G1 X136.403 Y107.039 E6.84983
G1 X137.042 Y109.228 E7.12287
G1 X137.196 Y110.014 E7.21878
G1 X137.209 Y110.511 E7.27831
G1 X137.138 Y111.15 E7.35529
G1 X136.352 Y113.933 E7.70155
G1 X136.084 Y114.495 E7.7761
G1 X135.692 Y115.086 E7.86102
G1 X133.738 Y117.032 E8.19122
G1 X133.338 Y117.36 E8.25315
G1 X132.874 Y117.758 E8.32635
G1 X132.401 Y118.274 E8.41016
G1 X131.999 Y118.853 E8.49456
G1 X131.691 Y119.445 E8.57447
G1 X131.451 Y120.084 E8.6562
G1 X131.296 Y120.749 E8.73796
G1 X131.227 Y121.435 E8.82051
G1 X131.254 Y122.579 E8.95753
G1 X131.182 Y123.227 E9.03559
G1 X130.044 Y127.28 E9.53965
G1 X129.766 Y127.869 E9.61764
G1 X129.473 Y128.311 E9.68113
G1 X129.162 Y128.671 E9.7381
G1 X126.396 Y131.438 E10.20656
G1 X125.733 Y131.913 E10.30421
G1 X125.081 Y132.192 E10.38913
G1 X121.056 Y133.312 E10.88938
G1 X120.276 Y133.395 E10.9833
G1 X119.509 Y133.307 E11.07574
G1 X115.894 Y132.256 E11.52651
G1 X115.442 Y132.093 E11.58404
G1 X114.851 Y131.807 E11.66266
G1 X114.331 Y131.4 E11.74172
G1 X111.382 Y128.448 E12.24134
G1 X111.006 Y127.98 E12.31322
G1 X110.75 Y127.538 E12.37438
G1 X110.573 Y127.124 E12.42829
G1 X109.434 Y123.249 E12.9119
G1 X109.359 Y122.594 E12.99084
G1 X109.372 Y122.087 E13.05157
G1 X109.56 Y120.902 E13.19523
G1 X109.575 Y120.213 E13.27775
G1 X109.507 Y119.548 E13.35779
G1 X109.357 Y118.897 E13.43778
G1 X109.106 Y118.221 E13.52412
G1 X108.802 Y117.642 E13.60242
G1 X108.389 Y117.048 E13.68905
G1 X107.943 Y116.56 E13.7682
G1 X107.399 Y116.097 E13.85374
G1 X106.875 Y115.752 E13.92886
G1 X106.266 Y115.451 E14.0102
G1 X105.593 Y115.221 E14.09536
G1 X104.925 Y115.083 E14.17703
G1 X104.244 Y115.031 E14.25881
G1 X103.584 Y115.065 E14.33794
G1 X102.891 Y115.187 E14.42219
G1 X102.229 Y115.396 E14.50531
G1 X101.511 Y115.722 E14.59973
G1 X100.924 Y116.04 E14.67967
G1 X100.37 Y116.437 E14.76128
G1 X99.872 Y116.898 E14.84253
G1 X99.434 Y117.421 E14.92421
G1 X99.065 Y117.996 E15.00602
G1 X98.772 Y118.61 E15.08748
G1 X98.59 Y119.146 E15.15526
G1 X98.088 Y120.947 E15.37912
G1 X97.796 Y121.565 E15.46096
G1 X97.503 Y122.007 E15.52446
G1 X97.188 Y122.371 E15.5821
G1 X94.637 Y124.923 E16.01415
G1 X93.977 Y125.396 E16.11138
G1 X93.321 Y125.678 E16.19687
G1 X89.589 Y126.716 E16.66069
G1 X88.809 Y126.799 E16.75461
G1 X88.04 Y126.711 E16.84729
G1 X84.399 Y125.649 E17.30142
G1 X83.66 Y125.29 E17.39979
G1 X83.136 Y124.877 E17.47968
G1 X80.539 Y122.288 E17.91876
G1 X80.041 Y121.686 E18.01231
G1 X79.786 Y121.247 E18.0731
G1 X79.609 Y120.833 E18.12701
G1 X78.632 Y117.511 E18.54162
G1 X78.531 Y117.051 E18.59801
G1 X78.459 Y116.426 E18.67334
G1 X78.543 Y115.635 E18.76858
G1 X79.599 Y111.999 E19.22194
G1 X79.955 Y111.257 E19.32048
G1 X80.486 Y110.597 E19.4219
G1 X82.759 Y108.196 E19.81778
G1 X83.352 Y107.679 E19.91198
G0 F7200 X83.334 Y108.224
G1 F1350 X97.04 Y121.93 E22.23286
G0 F7200 X95.92 Y123.073
G1 F1350 X82.206 Y109.359 E24.55509
G0 F7200 X81.106 Y110.522
G1 F1350 X94.789 Y124.204 E26.87199
G0 F7200 X93.49 Y125.168
G1 F1350 X80.132 Y111.81 E29.13394
G0 F7200 X79.574 Y113.515
G1 F1350 X91.756 Y125.697 E31.19676
G0 F7200 X89.986 Y126.19
G1 F1350 X79.065 Y115.269 E33.04604
G0 F7200 X79.051 Y117.518
G1 F1350 X87.739 Y126.205 E34.51712
G0 F7200 X84.544 Y125.273
G1 F1350 X79.999 Y120.728 E35.28674
G0 F7200 X84.82 Y107.448
G1 F1350 X97.814 Y120.441 E37.48697
G0 F7200 X98.323 Y118.687
G1 F1350 X86.588 Y106.952 E39.47409
G0 F7200 X88.39 Y106.492
G1 F1350 X99.1 Y117.202 E41.28765
G0 F7200 X100.215 Y116.054
G1 F1350 X91.062 Y106.901 E42.83755
G0 F7200 X93.27 Y106.846
G1 F1350 X101.643 Y115.22 E44.25546
G0 F7200 X103.381 Y114.695
G1 F1350 X94.893 Y106.206 E45.69284
G0 F7200 X96.278 Y105.329
G1 F1350 X105.826 Y114.877 E47.30963
G0 F7200 X109.738 Y118.788
G1 F1350 X123.237 Y132.288 E49.59554
G0 F7200 X125.001 Y131.789
G1 F1350 X98.002 Y104.79 E54.16736
G0 F7200 X100.487 Y105.013
G1 F1350 X126.37 Y130.896 E58.55021
G0 F7200 X127.501 Y129.764
G1 F1350 X104.297 Y106.56 E62.47941
G0 F7200 X106.921 Y106.921
G1 F1350 X128.633 Y128.633 E66.15597
G0 F7200 X129.582 Y127.32
G1 F1350 X108.93 Y106.667 E69.65312
G0 F7200 X111.193 Y106.667
G1 F1350 X130.105 Y125.58 E72.85563
G0 F7200 X130.601 Y123.812
G1 F1350 X113.661 Y106.873 E75.72404
G0 F7200 X115.869 Y106.818
G1 F1350 X130.836 Y121.785 E78.25845
G0 F7200 X131.129 Y119.815
G1 F1350 X117.661 Y106.347 E80.53903
G0 F7200 X119.357 Y105.781
G1 F1350 X131.887 Y118.31 E82.66068
G0 F7200 X132.979 Y117.14
G1 F1350 X121.056 Y105.217 E84.67964
G0 F7200 X122.861 Y104.759
G1 F1350 X134.153 Y116.051 E86.59175
G0 F7200 X135.287 Y114.922
G1 F1350 X124.299 Y103.934 E88.45238
G0 F7200 X125.776 Y103.149
G1 F1350 X136.073 Y113.446 E90.196
G0 F7200 X136.572 Y111.681
G1 F1350 X127.546 Y102.656 E91.72432
G0 F7200 X129.66 Y102.507
G1 F1350 X136.695 Y109.542 E92.91557
G0 F7200 X135.06 Y105.644
G1 F1350 X133.085 Y103.67 E93.24992
G0 F7200 X109.911 Y121.224
G1 F1350 X121.467 Y132.781 E95.20682
G0 F7200 X119.232 Y132.808
G1 F1350 X109.924 Y123.501 E96.78288
G0 F7200 X110.867 Y126.706
G1 F1350 X116.041 Y131.881 E97.6591
G1 F1500 E90.6591
G0 F600 X116.041 Y131.881 Z0.66
G0 F7200 X129.954 Y126.866
;TIME_ELAPSED:42.261851
;LAYER:-5
;TYPE:SUPPORT
G1 F1500 E97.6591
G1 F1350 X124.742 Y132.078 E98.2107
G1 X124.996 Y132.006 E98.23046
G1 X125.468 Y131.808 E98.26876
G1 X125.891 Y131.562 E98.30538
G1 X126.465 Y131.088 E98.36109
G1 X129.111 Y128.442 E98.64112
G1 X129.522 Y127.912 E98.69131
G1 X129.859 Y127.207 E98.74979
G1 X130.394 Y125.295 E98.89837
G1 X123.17 Y132.518 E99.66286
G1 X121.599 Y132.959 E99.78497
G1 X130.834 Y123.723 E100.76239
G1 X130.987 Y123.179 E100.80468
G1 X131.054 Y122.587 E100.84926
G1 X131.048 Y122.378 E100.86491
G1 X120.236 Y133.19 E102.00918
G1 X119.513 Y133.101 E102.06369
G1 X119.266 Y133.029 E102.08295
G1 X131.043 Y121.252 E103.32934
G1 X131.099 Y120.713 E103.3699
G1 X131.295 Y119.869 E103.43474
G1 X118.39 Y132.774 E104.80051
G1 X117.514 Y132.518 E104.86881
G1 X136.169 Y113.863 E106.84313
G1 X136.608 Y112.292 E106.9652
G1 X116.639 Y132.262 E109.07863
G1 X115.763 Y132.006 E109.14693
G1 X136.975 Y110.794 E111.39186
G1 X137.008 Y110.189 E111.4372
G1 X136.948 Y109.69 E111.47482
G1 X115.001 Y131.637 E113.79754
G1 X114.345 Y131.161 E113.85819
G1 X136.708 Y108.798 E116.22494
G1 X136.452 Y107.923 E116.29316
G1 X113.793 Y130.582 E118.69123
G1 X113.226 Y130.017 E118.75114
G1 X136.182 Y107.062 E121.18059
G1 X135.968 Y106.491 E121.22622
G1 X135.828 Y106.285 E121.24486
G1 X112.66 Y129.452 E123.69675
G1 X112.094 Y128.887 E123.7566
G1 X135.337 Y105.644 E126.21648
G1 X134.787 Y105.063 E126.27635
G1 X111.539 Y128.31 E128.7367
G1 X111.173 Y127.868 E128.77965
G1 X111.055 Y127.663 E128.79735
G1 X134.236 Y104.482 E131.25067
G1 X133.686 Y103.901 E131.31054
G1 X110.708 Y126.878 E133.74232
G1 X110.452 Y126.004 E133.81047
G1 X133.066 Y103.389 E136.20383
G1 X132.296 Y103.028 E136.26747
G1 X110.194 Y125.13 E138.6066
G1 X109.938 Y124.255 E138.67482
G1 X131.403 Y102.789 E140.94658
G1 X130.522 Y102.54 E141.0151
G1 X109.681 Y123.38 E143.22071
G1 X109.629 Y123.204 E143.23445
G1 X109.557 Y122.585 E143.28108
G1 X109.563 Y122.367 E143.2974
G1 X129.639 Y102.291 E145.42211
G1 X129.066 Y102.222 E145.4653
G1 X128.568 Y102.23 E145.50257
G1 X109.757 Y121.042 E147.49345
G1 X109.774 Y120.203 E147.55625
G1 X109.745 Y119.922 E147.57739
G1 X127.095 Y102.572 E149.41359
G1 X125.523 Y103.013 E149.53578
G1 X109.591 Y118.945 E151.22191
G1 X109.281 Y118.124 E151.28758
G1 X122.856 Y104.548 E152.72432
G1 X122.173 Y104.776 E152.77821
G1 X121.331 Y104.942 E152.84243
G1 X108.878 Y117.395 E154.16037
G1 X108.557 Y116.937 E154.20222
G1 X108.39 Y116.752 E154.22087
G1 X119.754 Y105.387 E155.42362
G1 X119.148 Y105.658 E155.47329
G1 X118.481 Y105.931 E155.52723
G1 X117.932 Y106.078 E155.56976
G1 X107.82 Y116.191 E156.64
G1 X107.171 Y115.708 E156.70054
G1 X116.423 Y106.456 E157.67971
G1 X115.862 Y106.618 E157.7234
G1 X115.164 Y106.731 E157.77632
G1 X115.012 Y106.736 E157.7877
G1 X106.451 Y115.297 E158.69374
G1 X105.6 Y115.017 E158.76078
G1 X113.897 Y106.719 E159.63893
G1 X112.962 Y106.523 E159.71042
G1 X104.627 Y114.858 E160.59254
G1 X104.246 Y114.829 E160.62114
G1 X103.486 Y114.868 E160.67809
G1 X111.886 Y106.467 E161.56714
G1 X110.755 Y106.467 E161.65178
G1 X101.896 Y115.326 E162.58935
G1 X101.431 Y115.538 E162.6276
G1 X100.823 Y115.865 E162.67926
G1 X100.248 Y116.277 E162.7322
G1 X99.728 Y116.758 E162.78521
G1 X99.273 Y117.3 E162.83816
G1 X98.89 Y117.895 E162.89112
G1 X98.588 Y118.533 E162.94394
G1 X98.396 Y119.093 E162.98824
G1 X97.891 Y120.9 E163.12865
G1 X97.558 Y121.596 E163.18639
G1 X97.142 Y122.137 E163.23746
G1 X94.516 Y124.762 E163.51533
G1 X93.88 Y125.222 E163.57407
G1 X93.236 Y125.493 E163.62636
G1 X92.715 Y125.639 E163.66685
G1 X98.06 Y120.294 E164.23252
G0 F7200 X98.534 Y118.688
G1 F1350 X91.143 Y126.079 E165.01474
G1 X89.86 Y126.439 E165.11446
G1 X89.605 Y126.485 E165.13385
G1 X109.624 Y106.467 E167.25247
G1 X108.492 Y106.467 E167.33718
G1 X88.41 Y126.55 E169.46258
G1 X88.048 Y126.505 E169.48988
G1 X87.486 Y126.342 E169.53367
G1 X107.137 Y106.691 E171.61339
G1 X106.655 Y106.754 E171.64977
G1 X105.963 Y106.734 E171.70158
G1 X86.611 Y126.086 E173.74966
G1 X85.735 Y125.83 E173.81796
G1 X105.007 Y106.558 E175.85757
G1 X104.13 Y106.304 E175.9259
G1 X84.859 Y125.575 E177.96541
G1 X84.463 Y125.458 E177.99631
G1 X84.046 Y125.256 E178.03099
G1 X103.26 Y106.042 E180.06446
G1 X102.676 Y105.799 E180.1118
G1 X102.654 Y105.831 E180.11471
G1 X102.461 Y105.71 E180.13175
G1 X83.355 Y124.816 E182.1538
G1 X82.789 Y124.251 E182.21365
G1 X101.763 Y105.276 E184.22178
G1 X101.168 Y104.991 E184.27115
G1 X100.973 Y104.936 E184.28631
G1 X82.222 Y123.687 E186.27079
G1 X81.655 Y123.122 E186.33069
G1 X100.088 Y104.689 E188.28151
G1 X99.627 Y104.561 E188.31732
G1 X99.144 Y104.501 E188.35374
G1 X81.089 Y122.557 E190.26461
G1 X80.524 Y121.99 E190.32451
G1 X97.908 Y104.607 E192.16426
G1 X96.669 Y104.955 E192.26057
G1 X96.258 Y105.125 E192.29385
G1 X80.061 Y121.322 E194.00803
G1 X79.962 Y121.154 E194.02263
G1 X79.726 Y120.526 E194.07283
G1 X93.75 Y106.502 E195.55704
G1 X93.317 Y106.635 E195.59093
G1 X92.618 Y106.756 E195.64402
G1 X92.353 Y106.768 E195.66387
G1 X79.469 Y119.651 E197.02737
G1 X79.212 Y118.777 E197.09555
G1 X91.251 Y106.738 E198.36967
G1 X90.319 Y106.539 E198.44099
G1 X78.955 Y117.902 E199.64363
G1 X78.747 Y117.197 E199.69863
G1 X78.725 Y117.001 E199.71339
G1 X89.422 Y106.305 E200.84544
G1 X88.864 Y106.237 E200.8875
G1 X88.297 Y106.297 E200.93017
G1 X78.721 Y115.874 E201.94368
G1 X78.749 Y115.637 E201.96154
G1 X79.129 Y114.334 E202.06312
G1 X86.774 Y106.69 E202.87216
G1 X85.202 Y107.13 E202.99432
G1 X79.595 Y112.737 E203.58772
G1 X79.799 Y112.038 E203.64222
G1 X80.121 Y111.367 E203.69791
G1 X80.63 Y110.732 E203.75882
G1 X83.094 Y108.13 E204.02699
G1 X83.606 Y107.746 E204.07489
G1 X84.038 Y107.507 E204.11183
G1 X84.594 Y107.3 E204.15623
G1 F1500 E197.15623
G0 F600 X84.594 Y107.3 Z0.86
G0 F7200 X84.155 Y125.309
;TIME_ELAPSED:106.450798
;LAYER:-4
;TYPE:SUPPORT-INTERFACE
G1 F1500 E204.15623
G1 F1800 X79.934 Y121.087 E204.30516
G1 X80.205 Y121.57 E204.31897
G1 X80.683 Y122.15 E204.33772
G1 X83.259 Y124.72 E204.42849
G1 X83.76 Y125.117 E204.44443
G1 X84.463 Y125.458 E204.46393
G1 X84.838 Y125.568 E204.47367
G1 X79.695 Y120.425 E204.65511
G1 X79.519 Y119.824 E204.67073
G1 X85.437 Y125.742 E204.8795
G1 X86.037 Y125.918 E204.8951
G1 X79.343 Y119.223 E205.13127
G1 X79.166 Y118.622 E205.1469
G1 X86.636 Y126.092 E205.41042
G1 X87.235 Y126.268 E205.42599
G1 X78.989 Y118.021 E205.71691
G1 X78.813 Y117.421 E205.73251
G1 X87.834 Y126.442 E206.05075
G1 X88.36 Y126.543 E206.06411
G1 X78.713 Y116.896 E206.40443
G1 X78.657 Y116.417 E206.41646
G1 X88.816 Y126.576 E206.77485
G1 X89.219 Y126.555 E206.78492
G1 X78.701 Y116.036 E207.15598
G1 X78.746 Y115.657 E207.16551
G1 X89.579 Y126.49 E207.54767
G1 X89.931 Y126.418 E207.55663
G1 X78.839 Y115.326 E207.94793
G1 X78.935 Y114.997 E207.95648
G1 X90.263 Y126.326 E208.35612
G1 X90.594 Y126.232 E208.36471
G1 X79.031 Y114.669 E208.77262
G1 X79.126 Y114.34 E208.78117
G1 X90.926 Y126.14 E209.19744
G1 X91.257 Y126.047 E209.20602
G1 X79.222 Y114.012 E209.63059
G1 X79.318 Y113.683 E209.63914
G1 X91.588 Y125.954 E210.07201
G1 X91.92 Y125.861 E210.08061
G1 X79.414 Y113.355 E210.52179
G1 X79.51 Y113.027 E210.53032
G1 X92.251 Y125.768 E210.97979
G1 X92.582 Y125.675 E210.98837
G1 X79.606 Y112.698 E211.44615
G1 X79.702 Y112.37 E211.45468
G1 X92.914 Y125.582 E211.92076
G1 X93.244 Y125.488 E211.92932
G1 X79.797 Y112.041 E212.4037
G1 X79.934 Y111.754 E212.41164
G1 X93.543 Y125.363 E212.89173
G1 X93.842 Y125.237 E212.89982
G1 X80.072 Y111.468 E213.38558
G1 X80.243 Y111.214 E213.39322
G1 X94.095 Y125.066 E213.88188
G1 X94.341 Y124.888 E213.88946
G1 X80.431 Y110.978 E214.38017
G1 X80.62 Y110.743 E214.38769
G1 X94.578 Y124.701 E214.8801
G1 X94.79 Y124.488 E214.8876
G1 X80.826 Y110.525 E215.3802
G1 X81.033 Y110.307 E215.3877
G1 X95.002 Y124.276 E215.88049
G1 X95.214 Y124.064 E215.88797
G1 X81.239 Y110.089 E216.38098
G1 X81.445 Y109.87 E216.38848
G1 X95.426 Y123.852 E216.88171
G1 X95.639 Y123.64 E216.88921
G1 X81.651 Y109.653 E217.38265
G1 X81.858 Y109.435 E217.39015
G1 X95.851 Y123.428 E217.88379
G1 X96.063 Y123.216 E217.89127
G1 X82.064 Y109.217 E218.38513
G1 X82.271 Y108.999 E218.39262
G1 X96.275 Y123.004 E218.88667
G1 X96.487 Y122.791 E218.89417
G1 X82.477 Y108.782 E219.38839
G1 X82.684 Y108.564 E219.39589
G1 X96.699 Y122.579 E219.89031
G1 X96.911 Y122.367 E219.89779
G1 X82.89 Y108.346 E220.39241
G1 X83.097 Y108.129 E220.3999
G1 X97.123 Y122.155 E220.8947
G1 X97.311 Y121.918 E220.90225
G1 X83.34 Y107.947 E221.39511
G1 X83.582 Y107.765 E221.40266
G1 X97.495 Y121.678 E221.89348
G1 X97.649 Y121.408 E221.90124
G1 X83.852 Y107.611 E222.38796
G1 X84.137 Y107.471 E222.39588
G1 X97.786 Y121.121 E222.87741
G1 X97.913 Y120.823 E222.88549
G1 X84.446 Y107.356 E223.36057
G1 X84.766 Y107.252 E223.36897
